X: 33480
T: Ragged Hank Of Yarn, The
R: reel
M: 4/4
K: Dmixolydian
|:D2 AD (3EFG AB|cddc cAGE|D2 AD (3EFG AB|1 cAGE EDAF:|[ 2 cAGE EDFA||
|:d2 de dc A2|(3Bcd ed cA G2|1 Adde dcAB|cAGE EDFA:|2 Adde f2 ed|cAGE EDAF||
|:D2 AD (3EFG AB|cAdB cAGE|D2 AD (3EFG AB|1 cAGE EDAF:|2 cAGE EDFA||

